sources/images/svg/google.svg

<svg width="11" height="17" viewBox="0 0 11 17" xmlns="http://www.w3.org/2000/svg"><path d="M8.75 9.254c-.437-.328-1.39-1-1.39-1.452 0-.53.152-.79.95-1.41.814-.64 1.39-1.48 1.39-2.522 0-1.136-.463-2.166-1.337-2.666h1.24l1.05-1.106H5.94c-2.393 0-4.388 1.764-4.388 3.706 0 1.983 1.31 3.564 3.56 3.564.157 0 .31-.01.458-.02-.146.28-.25.593-.25.92 0 .55.303.866.678 1.23-.283 0-.557.008-.855.008-2.74 0-4.66 1.886-4.66 3.695 0 1.784 2.314 2.9 5.054 2.9 3.123 0 5.044-1.774 5.044-3.556 0-1.43-.307-2.147-1.83-3.29zM6.024 6.648c-1.27-.04-2.48-1.206-2.698-2.875C3.106 2.105 3.96.827 5.23.863c1.27.04 2.358 1.41 2.577 3.078.218 1.67-.512 2.746-1.783 2.71zm-.498 8.662c-1.893 0-3.26-1.2-3.26-2.64 0-1.41 1.603-2.628 3.498-2.606.44.003.853.075 1.226.196 1.03.715 1.858 1.16 2.067 1.976.04.164.06.334.06.508 0 1.44-.927 2.566-3.59 2.566z" id="Fill-3" fill="#fff" fill-rule="evenodd"/></svg>

<?xml version="1.0" encoding="UTF-8" standalone="no"?>
<svg width="11px" height="17px" viewBox="0 0 11 17" version="1.1" xmlns="http://www.w3.org/2000/svg" xmlns:xlink="http://www.w3.org/1999/xlink" xmlns:sketch="http://www.bohemiancoding.com/sketch/ns">
    <!-- Generator: Sketch 3.0.4 (8053) - http://www.bohemiancoding.com/sketch -->
    <title>google</title>
    <desc>Created with Sketch.</desc>
    <defs></defs>
    <g id="Page-1" stroke="none" stroke-width="1" fill="none" fill-rule="evenodd" sketch:type="MSPage">
        <g id="Landscape-Retina" sketch:type="MSArtboardGroup" transform="translate(-1025.000000, -949.000000)" fill="#FFFFFF">
            <g id="google" sketch:type="MSLayerGroup" transform="translate(1025.000000, 949.000000)">
                <path d="M8.75,9.254 C8.313,8.926 7.361,8.253 7.361,7.802 C7.361,7.273 7.512,7.013 8.309,6.391 C9.124,5.753 9.701,4.913 9.701,3.87 C9.701,2.734 9.237,1.704 8.363,1.204 L9.602,1.204 L10.655,0.098 L5.94,0.098 C3.547,0.098 1.552,1.862 1.552,3.804 C1.552,5.787 2.862,7.368 5.113,7.368 C5.269,7.368 5.422,7.359 5.57,7.349 C5.424,7.629 5.32,7.941 5.32,8.269 C5.32,8.819 5.623,9.134 5.998,9.498 C5.715,9.498 5.441,9.506 5.143,9.506 C2.402,9.506 0.484,11.392 0.484,13.201 C0.484,14.983 2.797,16.098 5.537,16.098 C8.66,16.098 10.581,14.325 10.581,12.543 C10.581,11.114 10.272,10.396 8.75,9.254 L8.75,9.254 Z M6.024,6.648 C4.753,6.608 3.545,5.442 3.326,3.773 C3.106,2.105 3.959,0.827 5.229,0.864 C6.5,0.903 7.588,2.272 7.807,3.941 C8.025,5.61 7.295,6.685 6.024,6.648 L6.024,6.648 Z M5.526,15.31 C3.633,15.31 2.265,14.111 2.265,12.671 C2.265,11.26 3.869,10.042 5.764,10.064 C6.205,10.067 6.617,10.139 6.99,10.26 C8.02,10.975 8.848,11.421 9.057,12.236 C9.096,12.4 9.117,12.57 9.117,12.744 C9.117,14.185 8.19,15.31 5.526,15.31 L5.526,15.31 Z" id="Fill-3" sketch:type="MSShapeGroup"></path>
            </g>
        </g>
    </g>
</svg>
